ui/icon/svg/wine-sharp.svg

<svg viewBox="0 0 512 512" xmlns="http://www.w3.org/2000/svg"><path d="m453 112v-45.67h-392.25v45.67l175.13 176v118h-111.13v42h264.25v-42h-111.12v-118zm-336.65-3.67h281l-37.81 38h-205.38z"/></svg>

<svg xmlns="http://www.w3.org/2000/svg" class="ionicon" viewBox="0 0 512 512"><title>Wine</title><path d="M453 112V66.33H60.75V112l175.13 176v118H124.75v42H389v-42H277.88V288zm-336.65-3.67h281l-37.81 38H154.16z"/></svg>
